X:74
T:Packie Byrne's
R:Jig
S:Lucy Farr, Galway (fiddle).
D:Lucy Farr - 'Hearth and Home'
Q:300
M:6/8
Z:Bernie Stocks
K:G
|: E2D EGA | B2A Bee | dBA BAF |1 AFE DEF :|2 FED E3 :| efe ede | faf edB | 
AFF dFF | ABA FED | efe ede | faf edB | AFF dFF | FED E3 | efe ede | 
faf edB | AFF dFF | ABA FED | E2D EGA | B2A Bee | dBA BAF | FED E3 ||
<end>
<start>
